images/fire1.svg

<svg width="34" height="45" viewBox="0 0 34 45" fill="none" xmlns="http://www.w3.org/2000/svg">
<ellipse cx="14.0272" cy="12.4342" rx="14.0272" ry="12.4342" transform="matrix(-1 0 0 1 31.1875 18.0859)" fill="#FFCC1D"/>
<path d="M5.20348 10.1238C4.52508 15.5226 9.50428 17.9963 9.50428 17.9963C9.27708 -0.225615 23.5395 0.000131954 23.5395 0.000131954C20.5955 2.24806 17.2003 10.3463 25.8019 15.5194C25.9267 15.5957 26.0515 15.672 26.1763 15.7483C39.3763 24.0119 33.1555 44.469 17.5651 44.9905C17.3699 44.9968 17.1779 45 16.9827 45C7.60668 45 0.14748 37.4454 0.00348036 28.1294C-0.12452 19.8213 5.20668 10.1206 5.20668 10.1206L5.20348 10.1238ZM14.0451 40.5487C19.8851 42.4659 26.1859 39.315 28.1155 33.5092C30.0451 27.7065 26.8739 21.4461 21.0307 19.5288C21.0307 19.5288 26.8451 26.0373 22.8259 31.7732C22.8259 31.7732 23.3475 28.0627 19.9875 26.3234C19.9875 26.3234 23.6355 37.3405 13.3411 40.3166L14.0451 40.5487Z" fill="url(#paint0_linear_837_37459)"/>
<defs>
<linearGradient id="paint0_linear_837_37459" x1="16.5827" y1="44.6598" x2="16.8101" y2="5.90132" gradientUnits="userSpaceOnUse">
<stop stop-color="#E11B00"/>
<stop offset="0.665" stop-color="#FF763B"/>
<stop offset="1" stop-color="#FFC83B"/>
</linearGradient>
</defs>
</svg>

<?xml version="1.0" encoding="UTF-8"?>
<svg id="_圖層_1" data-name="圖層_1" xmlns="http://www.w3.org/2000/svg" xmlns:xlink="http://www.w3.org/1999/xlink" version="1.1" viewBox="0 0 33.36 45">
  <!-- Generator: Adobe Illustrator 30.6.0, SVG Export Plug-In . SVG Version: 2.1.4 Build 109)  -->
  <defs>
    <style>
      .st0 {
        fill: url(#_未命名漸層);
      }

      .st1 {
        fill: #ffcc1d;
      }
    </style>
    <linearGradient id="_未命名漸層" data-name="未命名漸層" x1="16.58" y1="1.34" x2="16.81" y2="40.1" gradientTransform="translate(0 46) scale(1 -1)" gradientUnits="userSpaceOnUse">
      <stop offset="0" stop-color="#e11b00"/>
      <stop offset=".67" stop-color="#ff763b"/>
      <stop offset="1" stop-color="#ffc83b"/>
    </linearGradient>
  </defs>
  <ellipse class="st1" cx="17.16" cy="30.52" rx="14.03" ry="12.43"/>
  <path class="st0" d="M5.2,10.12c-.68,5.4,4.3,7.87,4.3,7.87C9.28-.23,23.54,0,23.54,0c-2.94,2.25-6.34,10.35,2.26,15.52.12.08.25.15.37.23,13.2,8.26,6.98,28.72-8.61,29.24-.2,0-.39,0-.58,0C7.61,45,.15,37.45,0,28.13-.13,19.82,5.21,10.12,5.21,10.12h0ZM14.04,40.55c5.84,1.92,12.14-1.23,14.07-7.04,1.93-5.8-1.24-12.06-7.08-13.98,0,0,5.81,6.51,1.8,12.24,0,0,.52-3.71-2.84-5.45,0,0,3.65,11.02-6.65,13.99l.7.23Z"/>
</svg>
